TGraphErrors/4.svg

<svg xmlns="http://www.w3.org/2000/svg" viewBox="0 0 1200 800" preserveAspectRatio="none" width="1200" height="800">
 <title>
  ROOT canvas
 </title>
 <rect x="0" y="0" width="1200" height="800" style="fill: none;"></rect>
 <g>
  <g transform="translate(120,80)">
   <title></title>
   <rect x="0" y="0" width="960" height="640" style="fill: white; stroke: black; stroke-width: 1;"></rect>
   <svg x="0" y="0" overflow="hidden" width="960" height="640" viewBox="0 0 960 640">
    <g>
     <path d="M97.39,586.67c11.01,-14.07,145.56,-193.24,173.91,-222.22s119.5,-147.24,173.91,-133.33s119.5,208.32,173.91,222.22s155.66,-119.34,173.91,-133.33L793.04,142.22c-11.01,14.07,-119.5,236.13,-173.91,222.22s-119.5,-297.2,-173.91,-311.11s-145.56,193.24,-173.91,222.22s-155.66,119.34,-173.91,133.33Z" style="stroke: none; fill: black;"></path>
    </g>
   </svg>
   <g>
    <g transform="translate(0,640)">
     <line x1="0" y1="0" x2="960" y2="0" style="stroke: black; stroke-width: 1;"></line>
     <path d="M28,-12v12m35,-12v12m34,-24v24m35,-12v12m35,-12v12m35,-12v12m35,-12v12m34,-24v24m35,-12v12m35,-12v12m35,-12v12m34,-12v12m35,-24v24m35,-12v12m35,-12v12m35,-12v12m34,-12v12m35,-24v24m35,-12v12m35,-12v12m34,-12v12m35,-12v12m35,-24v24m35,-12v12m35,-12v12m34,-12v12m35,-12v12" style="stroke: black; stroke-width: 1;"></path>
     <g font-family="Arial" font-size="28" space="preserve">
      <text fill="black" text-anchor="middle" dy=".8em" transform="translate(97,6)">
       0
      </text>
      <text fill="black" text-anchor="middle" dy=".8em" transform="translate(271,6)">
       1
      </text>
      <text fill="black" text-anchor="middle" dy=".8em" transform="translate(445,6)">
       2
      </text>
      <text fill="black" text-anchor="middle" dy=".8em" transform="translate(619,6)">
       3
      </text>
      <text fill="black" text-anchor="middle" dy=".8em" transform="translate(793,6)">
       4
      </text>
     </g>
    </g>
    <g>
     <line x1="0" y1="0" x2="0" y2="640" style="stroke: black; stroke-width: 1;"></line>
     <path d="M18,640h-18m18,-18h-18m18,-18h-18m36,-17h-36m18,-18h-18m18,-18h-18m18,-18h-18m18,-17h-18m36,-18h-36m18,-18h-18m18,-18h-18m18,-18h-18m18,-17h-18m36,-18h-36m18,-18h-18m18,-18h-18m18,-17h-18m18,-18h-18m36,-18h-36m18,-18h-18m18,-18h-18m18,-17h-18m18,-18h-18m36,-18h-36m18,-18h-18m18,-17h-18m18,-18h-18m18,-18h-18m36,-18h-36m18,-18h-18m18,-17h-18m18,-18h-18m18,-18h-18m36,-18h-36m18,-17h-18m18,-18h-18m18,-18h-18" style="stroke: black; stroke-width: 1;"></path>
     <g font-family="Arial" font-size="28" space="preserve">
      <text fill="black" text-anchor="end" dy=".4em" transform="translate(-4,587)">
       -1
      </text>
      <text fill="black" text-anchor="end" dy=".4em" transform="translate(-4,498)">
       0
      </text>
      <text fill="black" text-anchor="end" dy=".4em" transform="translate(-4,409)">
       1
      </text>
      <text fill="black" text-anchor="end" dy=".4em" transform="translate(-4,320)">
       2
      </text>
      <text fill="black" text-anchor="end" dy=".4em" transform="translate(-4,231)">
       3
      </text>
      <text fill="black" text-anchor="end" dy=".4em" transform="translate(-4,142)">
       4
      </text>
      <text fill="black" text-anchor="end" dy=".4em" transform="translate(-4,53)">
       5
      </text>
     </g>
    </g>
   </g>
  </g>
  <g transform="translate(120,4)" font-family="Arial" font-size="40" space="preserve">
   <path d="M0,0h960v53h-960z" style="fill: none;"></path>
   <text fill="black" text-anchor="middle" dy=".8em" transform="translate(480,0)">
    Graph
   </text>
  </g>
 </g>
</svg>

<svg xmlns="http://www.w3.org/2000/svg" viewBox="0 0 1200 800" preserveAspectRatio="none" width="1200" height="800">
 <title>
  ROOT canvas
 </title>
 <rect x="0" y="0" width="1200" height="800" style="fill: none;"></rect>
 <g>
  <g transform="translate(120,80)">
   <title></title>
   <rect x="0" y="0" width="960" height="640" style="fill: white; stroke: black; stroke-width: 1;"></rect>
   <svg x="0" y="0" overflow="hidden" width="960" height="640" viewBox="0 0 960 640">
    <g>
     <path d="M97.39,586.67C108.4,572.6,242.96,393.42,271.3,364.44S390.8,217.2,445.22,231.11S564.71,439.43,619.13,453.33S774.79,334,793.04,320L793.04,142.22C782.03,156.29,673.55,378.35,619.13,364.44S499.63,67.24,445.22,53.33S299.65,246.58,271.3,275.56S115.65,394.89,97.39,408.89Z" style="stroke: none; fill: black;"></path>
    </g>
   </svg>
   <g>
    <g transform="translate(0,640)">
     <line x1="0" y1="0" x2="960" y2="0" style="stroke: black; stroke-width: 1;"></line>
     <path d="M28,-12v12m35,-12v12m34,-24v24m35,-12v12m35,-12v12m35,-12v12m35,-12v12m34,-24v24m35,-12v12m35,-12v12m35,-12v12m34,-12v12m35,-24v24m35,-12v12m35,-12v12m35,-12v12m34,-12v12m35,-24v24m35,-12v12m35,-12v12m34,-12v12m35,-12v12m35,-24v24m35,-12v12m35,-12v12m34,-12v12m35,-12v12" style="stroke: black; stroke-width: 1;"></path>
     <g font-family="Arial" font-size="28" space="preserve">
      <text fill="black" text-anchor="middle" dy=".8em" transform="translate(97,6)">
       0
      </text>
      <text fill="black" text-anchor="middle" dy=".8em" transform="translate(271,6)">
       1
      </text>
      <text fill="black" text-anchor="middle" dy=".8em" transform="translate(445,6)">
       2
      </text>
      <text fill="black" text-anchor="middle" dy=".8em" transform="translate(619,6)">
       3
      </text>
      <text fill="black" text-anchor="middle" dy=".8em" transform="translate(793,6)">
       4
      </text>
     </g>
    </g>
    <g>
     <line x1="0" y1="0" x2="0" y2="640" style="stroke: black; stroke-width: 1;"></line>
     <path d="M18,640h-18m18,-18h-18m18,-18h-18m36,-17h-36m18,-18h-18m18,-18h-18m18,-18h-18m18,-17h-18m36,-18h-36m18,-18h-18m18,-18h-18m18,-18h-18m18,-17h-18m36,-18h-36m18,-18h-18m18,-18h-18m18,-17h-18m18,-18h-18m36,-18h-36m18,-18h-18m18,-18h-18m18,-17h-18m18,-18h-18m36,-18h-36m18,-18h-18m18,-17h-18m18,-18h-18m18,-18h-18m36,-18h-36m18,-18h-18m18,-17h-18m18,-18h-18m18,-18h-18m36,-18h-36m18,-17h-18m18,-18h-18m18,-18h-18" style="stroke: black; stroke-width: 1;"></path>
     <g font-family="Arial" font-size="28" space="preserve">
      <text fill="black" text-anchor="end" dy=".4em" transform="translate(-4,587)">
       -1
      </text>
      <text fill="black" text-anchor="end" dy=".4em" transform="translate(-4,498)">
       0
      </text>
      <text fill="black" text-anchor="end" dy=".4em" transform="translate(-4,409)">
       1
      </text>
      <text fill="black" text-anchor="end" dy=".4em" transform="translate(-4,320)">
       2
      </text>
      <text fill="black" text-anchor="end" dy=".4em" transform="translate(-4,231)">
       3
      </text>
      <text fill="black" text-anchor="end" dy=".4em" transform="translate(-4,142)">
       4
      </text>
      <text fill="black" text-anchor="end" dy=".4em" transform="translate(-4,53)">
       5
      </text>
     </g>
    </g>
   </g>
  </g>
  <g transform="translate(120,4)" font-family="Arial" font-size="40" space="preserve">
   <path d="M0,0h960v53h-960z" style="fill: none;"></path>
   <text fill="black" text-anchor="middle" dy=".8em" transform="translate(480,0)">
    Graph
   </text>
  </g>
 </g>
</svg>
